svg/u1f6ad.svg

<svg viewBox="0 0 128 128" xmlns="http://www.w3.org/2000/svg">
  <g>
    <path d="M64,4C30.9,4,4,30.9,4,64s26.9,60,60,60s60-26.9,60-60S97.1,4,64,4z M114,64c0,12-4.2,23-11.3,31.6 L32.4,25.3C41,18.2,52,14,64,14C91.6,14,114,36.4,114,64z M14,64c0-12,4.2-23,11.3-31.6l70.3,70.3C87,109.8,76,114,64,114 C36.4,114,14,91.6,14,64z" fill="#CC3333"/>
    <circle cx="60.1" cy="63.1" r="56.1" fill="#F44336"/>
    <path d="M95.6,102.7C87,109.8,76,114,64,114c-27.6,0-50-22.4-50-50c0-12,4.2-23,11.3-31.6l7.1-7.1 C41,18.2,52,14,64,14c27.6,0,50,22.4,50,50c0,12-4.2,23-11.3,31.6" fill="#FFFFFF"/>
    <path d="M95.6,102.7C87,109.8,76,114,64,114c-27.6,0-50-22.4-50-50c0-12,4.2-23,11.3-31.6l7.1-7.1 C41,18.2,52,14,64,14c27.6,0,50,22.4,50,50c0,12-4.2,23-11.3,31.6" fill="#231F20"/>
    <path d="M96.4,103.2C88.1,110,77.6,114,66.1,114c-26.4,0-47.9-21.5-47.9-47.9c0-11.5,4-22,10.8-30.3 l6.8-6.8c8.2-6.8,18.8-10.8,30.3-10.8c26.4,0,47.9,21.5,47.9,47.9c0,11.5-4,22-10.8,30.3" fill="#414042"/>
    <g>
      <path d="M91,69H25c-0.5,0-1-0.4-1-1v-8c0-0.5,0.5-1,1-1h66c0.6,0,1,0.5,1,1v8C92,68.6,91.6,69,91,69z" fill="#FAFAFA"/>
      <path d="M103,69h-6c-0.6,0-1-0.4-1-1v-8c0-0.5,0.4-1,1-1h6c0.6,0,1,0.5,1,1v8C104,68.6,103.6,69,103,69z" fill="#FAFAFA"/>
    </g>
    <path d="M98.1,53.4c-1.1,0.5-0.3,2.2,0.8,1.9c6.2-1.9,16.2-9.5,15.6-24c-0.6-14.4-0.6-21.4,9.1-26 c0.6-0.3,0.4-1.3-0.3-1.2c-6.6,0.1-22.2,2.9-20.2,20.4C104.7,38.7,105.1,50,98.1,53.4z" fill="#FAFAFA"/>
    <g opacity="0.2">
      <path d="M123.4,4L123.4,4c-6.6,0.1-22.2,2.9-20.2,20.4c1.6,14.3,2,25.6-5,29c-1,0.5-0.4,1.9,0.5,1.9 c0.1,0,0.2,0,0.3,0c6.2-1.9,16.2-9.5,15.6-24c-0.6-14.4-0.6-21.4,9.1-26C124.2,4.9,124,4,123.4,4z" fill="#424242"/>
    </g>
    <polyline points="23.4,35.6 95,102.1 97,100.2 30.6,33.4 " opacity="0.8" fill="#231F20" enable-background="new "/>
    <path d="M103.9,96.8L25.3,18.9L18.2,26l78.6,77.9" fill="#F44336"/>
  </g>
  <path d="M45,10.9c1.7-0.4,4.2-1.6,5.9-1.1c1,0.3,1.9,1.5,1.5,2.5c-0.3,0.8-1.1,1.3-2,1.5 c-4.1,1.1-7.7,2.3-11.3,4.1C32,21.6,25.6,27.2,21,33.7c-1.9,2.7-3.4,5.5-5.8,7.8c-0.2,0.2-0.5,0.4-0.8,0.4c-0.2,0-0.4,0-0.5-0.1 c-1.2-0.5-1.4-1.1-1.2-2.3c0.2-1,0.5-2,1-2.9c0.9-1.8,2.2-3.4,3.3-5.1c1.9-2.9,4.1-5.6,6.6-8C30.4,17.2,39.2,12.4,45,10.9z" fill="#FF8A80"/>
  <polygon points="32.4,25.3 30.4,27.3 101.5,98.4 103.3,96.2 " fill="#CC3333"/>
</svg>

<svg viewBox="0 0 128 128" xmlns="http://www.w3.org/2000/svg">
  <defs/>
  <path d="M64,4 C30.9,4 4,30.9 4,64 C4,97.1 30.9,124 64,124 C97.1,124 124,97.1 124,64 C124,30.9 97.1,4 64,4 Z M114,64 C114,76 109.8,87 102.7,95.6 L32.4,25.3 C41,18.2 52,14 64,14 C91.6,14 114,36.4 114,64 Z M14,64 C14,52 18.2,41 25.3,32.4 L95.6,102.7 C87,109.8 76,114 64,114 C36.4,114 14,91.6 14,64 Z" fill="#CC3333"/>
  <path d="M116.2,63.1 A56.1 56.1 0 1 1 4,63.1 A56.1 56.1 0 1 1 116.2,63.1 Z" fill="#F44336"/>
  <path d="M95.6,102.7 C87,109.8 76,114 64,114 C36.4,114 14,91.6 14,64 C14,52 18.2,41 25.3,32.4 L32.4,25.3 C41,18.2 52,14 64,14 C91.6,14 114,36.4 114,64 C114,76 109.8,87 102.7,95.6" fill="#FFFFFF"/>
  <path d="M95.6,102.7 C87,109.8 76,114 64,114 C36.4,114 14,91.6 14,64 C14,52 18.2,41 25.3,32.4 L32.4,25.3 C41,18.2 52,14 64,14 C91.6,14 114,36.4 114,64 C114,76 109.8,87 102.7,95.6" fill="#231F20"/>
  <path d="M96.4,103.2 C88.1,110 77.6,114 66.1,114 C39.7,114 18.2,92.5 18.2,66.1 C18.2,54.6 22.2,44.1 29,35.8 L35.8,29 C44,22.2 54.6,18.2 66.1,18.2 C92.5,18.2 114,39.7 114,66.1 C114,77.6 110,88.1 103.2,96.4" fill="#414042"/>
  <path d="M91,69 L25,69 C24.5,69 24,68.6 24,68 L24,60 C24,59.5 24.5,59 25,59 L91,59 C91.6,59 92,59.5 92,60 L92,68 C92,68.6 91.6,69 91,69 Z" fill="#FAFAFA"/>
  <path d="M103,69 L97,69 C96.4,69 96,68.6 96,68 L96,60 C96,59.5 96.4,59 97,59 L103,59 C103.6,59 104,59.5 104,60 L104,68 C104,68.6 103.6,69 103,69 Z" fill="#FAFAFA"/>
  <path d="M98.1,53.4 C97,53.9 97.8,55.6 98.9,55.3 C105.1,53.4 115.1,45.8 114.5,31.3 C113.9,16.9 113.9,9.9 123.6,5.3 C124.2,5 124,4 123.3,4.1 C116.7,4.2 101.1,7 103.1,24.5 C104.7,38.7 105.1,50 98.1,53.4 Z" fill="#FAFAFA"/>
  <path d="M123.4,4 L123.4,4 C116.8,4.1 101.2,6.9 103.2,24.4 C104.8,38.7 105.2,50 98.2,53.4 C97.2,53.9 97.8,55.3 98.7,55.3 C98.8,55.3 98.9,55.3 99,55.3 C105.2,53.4 115.2,45.8 114.6,31.3 C114,16.9 114,9.9 123.7,5.3 C124.2,4.9 124,4 123.4,4 Z" fill="#424242" opacity="0.2"/>
  <path d="M23.4,35.6 L95,102.1 L97,100.2 L30.6,33.4" fill="#231F20" opacity="0.8"/>
  <path d="M103.9,96.8 L25.3,18.9 L18.2,26 L96.8,103.9" fill="#F44336"/>
  <path d="M45,10.9 C46.7,10.5 49.2,9.3 50.9,9.8 C51.9,10.1 52.8,11.3 52.4,12.3 C52.1,13.1 51.3,13.6 50.4,13.8 C46.3,14.9 42.7,16.1 39.1,17.9 C32,21.6 25.6,27.2 21,33.7 C19.1,36.4 17.6,39.2 15.2,41.5 C15,41.7 14.7,41.9 14.4,41.9 C14.2,41.9 14,41.9 13.9,41.8 C12.7,41.3 12.5,40.7 12.7,39.5 C12.9,38.5 13.2,37.5 13.7,36.6 C14.6,34.8 15.9,33.2 17,31.5 C18.9,28.6 21.1,25.9 23.6,23.5 C30.4,17.2 39.2,12.4 45,10.9 Z" fill="#FF8A80"/>
  <path d="M32.4,25.3 L30.4,27.3 L101.5,98.4 L103.3,96.2 Z" fill="#CC3333"/>
</svg>
